public/images/partners/otvise.svg

<svg width="294" height="61" viewBox="0 0 294 61" fill="none" xmlns="http://www.w3.org/2000/svg">
<g clip-path="url(#clip0_511_1174)">
<path d="M90.6467 13.0903C80.8038 13.0903 73.0234 21.0462 73.0234 30.8345C73.0234 40.6255 80.8038 48.656 90.6467 48.656C100.508 48.656 108.12 40.6269 108.12 30.8345C108.12 21.0462 100.509 13.0903 90.6467 13.0903ZM90.6467 45.7305C82.2086 45.7305 76.3277 39.2852 76.3277 30.8345C76.3277 22.3826 82.2086 16.0185 90.6467 16.0185C99.0964 16.0185 104.804 22.3826 104.804 30.8345C104.804 39.2852 99.0977 45.7305 90.6467 45.7305Z" fill="white"/>
<path d="M152.006 16.502C156.304 16.502 161.049 16.502 161.049 16.502V48.0086H164.28V16.502C164.28 16.502 168.748 16.502 173.544 16.502C175.687 16.502 175.687 13.8252 175.687 13.8252H149.865C149.865 13.8252 149.866 16.502 152.006 16.502Z" fill="white"/>
<path d="M140.388 15.9915C140.388 22.0808 140.388 32.7619 140.388 32.7619C140.388 41.0489 137.074 45.6603 129.454 45.6603C121.829 45.6603 118.514 41.0489 118.514 32.7619C118.514 32.7619 118.514 20.1841 118.514 15.9915C118.514 13.8082 115.285 13.8252 115.285 13.8252V33.0132C115.285 43.0699 120.919 48.6749 129.454 48.6749C137.987 48.6749 143.62 43.0686 143.62 33.0132V13.8252C143.62 13.8252 140.388 13.8082 140.388 15.9915Z" fill="white"/>
<path d="M221.504 13.7988H216.426V48.0948H221.504V13.7988Z" fill="white"/>
<path d="M242.315 27.8261C235.76 25.8417 234.834 24.805 234.834 22.0195C234.834 19.4723 237.043 17.827 240.461 17.827C244.176 17.827 246.282 20.17 247.396 22.1347L247.911 23.0458L251.983 20.5692L251.509 19.7001C249.102 15.3151 245.388 13.0898 240.46 13.0898C234.442 13.0898 229.903 16.9945 229.903 22.174C229.903 28.7489 235.129 30.8341 240.467 32.4022C246.6 34.3264 248.587 35.2452 248.587 38.769C248.587 41.8908 245.856 43.9079 241.633 43.9079C237.211 43.9079 234.189 41.9811 232.398 38.0215L231.979 37.1013L227.487 39.1027L227.873 40.0321C230.127 45.4747 235.272 48.7236 241.633 48.7236C248.946 48.7236 253.668 44.7849 253.668 38.6878C253.668 31.8223 247.805 29.4806 242.315 27.8261Z" fill="white"/>
<path d="M276.468 13.0898C266.73 13.0898 258.802 21.064 258.802 30.8694C258.802 40.7154 266.728 48.7236 276.468 48.7236C282.918 48.7236 288.635 45.315 291.751 39.6054L292.585 38.0818H286.954L286.656 38.5464C284.418 42.0034 280.8 43.9079 276.468 43.9079C270.099 43.9079 265.27 39.6695 264.193 33.5174H288.633H293.349H293.809L293.894 32.5854C293.947 31.9977 293.973 31.4231 293.973 30.8707C293.972 20.8991 286.286 13.0898 276.468 13.0898ZM264.174 28.3798C265.203 22.1858 270.053 17.9094 276.468 17.9094C282.914 17.9094 287.633 22.1059 288.617 28.3798H264.174Z" fill="white"/>
<path d="M204.204 18.0261C202.092 23.148 195.531 38.5846 195.531 38.5846C195.381 38.9249 195.23 39.3045 195.094 39.6932C194.951 39.3058 194.798 38.9301 194.647 38.5911C194.647 38.5911 187.981 23.3404 185.512 17.9109C183.525 13.5416 180.937 13.8008 178.312 13.8008C183.623 25.6756 193.923 48.7237 193.923 48.7237L195.054 51.2618L196.184 48.7237C196.184 48.7237 206.138 26.0369 211.458 13.8008C208.711 13.8008 205.992 13.6895 204.204 18.0261Z" fill="white"/>
<path d="M46.3402 32.771C45.3083 32.771 44.3463 33.0171 43.5383 33.2567C42.3652 33.6075 41.411 33.7763 40.616 33.7763C39.1749 33.7763 38.1313 33.2344 37.3311 32.0747L37.3117 32.0433L37.2962 32.0145C37.0398 31.5432 36.9052 31.0301 36.9052 30.5288C36.9052 29.9921 37.0489 29.4384 37.3169 28.9738C38.1274 27.8232 39.1542 27.3127 40.5953 27.3127C41.477 27.3127 42.5556 27.4973 44.0821 27.9109C44.8409 28.1177 45.6022 28.2224 46.3376 28.2224C51.061 28.2224 54.8961 24.3427 54.8961 19.5741C54.8961 14.8043 51.061 10.9232 46.3376 10.9232C42.4533 10.9232 39.0545 13.5791 38.0731 17.3829C37.2172 20.6148 36.2358 22.5193 33.7368 22.7104C33.1425 22.6986 32.635 22.5625 32.2051 22.3085C31.7804 22.0625 31.3985 21.6829 31.1227 21.2391L31.1045 21.2038L31.089 21.1671C30.0804 18.9406 31.2276 17.1421 33.5504 14.7834C35.1779 13.1459 36.0726 10.9664 36.0726 8.64958C36.0778 3.87844 32.244 0 27.5219 0C22.8024 0 18.966 3.87844 18.966 8.64828C18.966 10.9455 19.8477 13.1105 21.4468 14.7415L22.6652 16.0557C23.9353 17.5583 24.9479 19.226 23.8473 21.3844L23.8201 21.4368L23.7826 21.4839C23.5029 21.8491 23.2116 22.1187 22.8866 22.3085C22.4813 22.5429 21.9958 22.6816 21.4753 22.7039L21.4403 22.7078L21.4002 22.7025C19.2431 22.5337 18.0648 21.1881 17.3281 18.0597C16.3376 13.8579 12.8766 10.9219 8.90554 10.9219C4.19124 10.9232 0.353516 14.8043 0.353516 19.5741C0.353516 24.3427 4.19124 28.2224 8.90424 28.2224C9.70183 28.2224 10.546 28.0863 11.5676 27.7931C12.773 27.4423 13.7105 27.28 14.5106 27.28C15.9647 27.28 17.0186 27.8284 17.8188 29.0039L17.8395 29.0379L17.8589 29.0706C18.0933 29.5274 18.2241 30.0445 18.2241 30.5262C18.2241 31.0393 18.0881 31.5589 17.8253 32.0262C17.0057 33.2396 15.9388 33.8051 14.5404 33.8051C13.8102 33.8051 12.9634 33.652 11.9483 33.3431C11.0018 33.0525 9.98539 32.7671 8.90424 32.7671C4.19124 32.771 0.353516 36.6521 0.353516 41.4259C0.353516 46.1957 4.19124 50.0768 8.90424 50.0768C12.9271 50.0768 16.3285 47.0648 17.3812 42.5843C17.9975 39.9507 19.2612 38.6221 21.3561 38.4061L21.4028 38.4022H21.4481C21.8106 38.4192 22.3531 38.503 22.8775 38.8093C23.3359 39.0763 23.7308 39.4847 24.0027 39.9572L24.0221 39.9952L24.0389 40.0344C24.8624 42.0869 23.7165 43.7754 22.3557 45.2899L21.4571 46.2454C19.8464 47.8843 18.9647 50.0493 18.9647 52.3465C18.9647 57.1189 22.8024 60.9987 27.5206 60.9987C32.2414 60.9987 36.0752 57.1176 36.0752 52.3465C36.0752 50.0702 35.2064 47.9235 33.6281 46.2939L33.5685 46.2507L33.5336 46.1944C31.2988 43.9312 30.1581 42.1929 30.9841 40.0698L31.001 40.0305L31.023 39.9965C31.2819 39.5109 31.6924 39.0894 32.1702 38.8106C32.6233 38.5462 33.1632 38.4009 33.6889 38.3956H33.7304L33.7679 38.4009C36.2707 38.6888 37.3065 40.7517 38.165 43.9914C39.2694 47.6198 42.5569 50.0781 46.3389 50.0781C51.0623 50.0781 54.8974 46.197 54.8974 41.4272C54.8987 36.6521 51.0636 32.771 46.3402 32.771ZM46.3273 16.5609C48.0571 16.5609 49.4632 17.9838 49.4632 19.7338C49.4632 21.4878 48.0571 22.908 46.3273 22.908C44.5923 22.908 43.1835 21.4878 43.1835 19.7338C43.1835 17.9838 44.5923 16.5609 46.3273 16.5609ZM8.93273 22.9094C7.19384 22.9094 5.78641 21.4891 5.78641 19.7351C5.78641 17.9851 7.19384 16.5622 8.93273 16.5622C10.6613 16.5622 12.0674 17.9851 12.0674 19.7351C12.0674 21.4891 10.6613 22.9094 8.93273 22.9094ZM8.93273 44.6119C7.19384 44.6119 5.78641 43.189 5.78641 41.4363C5.78641 39.6863 7.19384 38.2647 8.93273 38.2647C10.6613 38.2647 12.0674 39.6863 12.0674 41.4363C12.0674 43.189 10.6613 44.6119 8.93273 44.6119ZM27.5413 55.5037C25.8024 55.5037 24.395 54.0822 24.395 52.3295C24.395 50.5794 25.8024 49.1579 27.5413 49.1579C29.2673 49.1579 30.676 50.5807 30.676 52.3295C30.676 54.0822 29.2673 55.5037 27.5413 55.5037ZM27.5413 11.7112C25.8024 11.7112 24.395 10.291 24.395 8.53701C24.395 6.78563 25.8024 5.3641 27.5413 5.3641C29.2673 5.3641 30.676 6.78432 30.676 8.53701C30.676 10.291 29.2673 11.7112 27.5413 11.7112ZM46.3273 44.6119C44.5923 44.6119 43.1835 43.189 43.1835 41.4363C43.1835 39.6863 44.5923 38.2647 46.3273 38.2647C48.0571 38.2647 49.4632 39.6863 49.4632 41.4363C49.4632 43.189 48.0571 44.6119 46.3273 44.6119Z" fill="white"/>
</g>
<defs>
<clipPath id="clip0_511_1174">
<rect width="293.619" height="61" fill="white" transform="translate(0.353516)"/>
</clipPath>
</defs>
</svg>

<svg width="294" height="61" viewBox="0 0 294 61" fill="none" xmlns="http://www.w3.org/2000/svg"><g clip-path="url(#clip0_511_1174)"><path d="M90.647 13.09c-9.843 0-17.624 7.956-17.624 17.744 0 9.792 7.78 17.822 17.624 17.822 9.86 0 17.473-8.03 17.473-17.821 0-9.789-7.61-17.745-17.473-17.745zm0 32.64c-8.438 0-14.32-6.445-14.32-14.896s5.882-14.816 14.32-14.816c8.45 0 14.157 6.365 14.157 14.816S99.098 45.73 90.647 45.73z" fill="white"/><path d="M152.006 16.502h9.043V48.01h3.23V16.5h9.264c2.143 0 2.143-2.677 2.143-2.677h-25.822s0 2.677 2.14 2.677z" fill="white"/><path d="M140.388 15.991v16.772c0 8.287-3.314 12.898-10.934 12.898-7.625 0-10.94-4.611-10.94-12.898v-16.77c0-2.184-3.23-2.167-3.23-2.167v19.188c0 10.057 5.635 15.662 14.17 15.662 8.533 0 14.166-5.606 14.166-15.662V13.825s-3.232-.017-3.232 2.167z" fill="white"/><path d="M221.504 13.799h-5.078v34.295h5.078V13.799z" fill="white"/><path d="M242.315 27.826c-6.555-1.984-7.48-3.02-7.48-5.806 0-2.548 2.208-4.193 5.626-4.193 3.716 0 5.822 2.343 6.936 4.308l.515.91 4.073-2.476-.474-.87c-2.408-4.385-6.122-6.61-11.05-6.61-6.018 0-10.557 3.904-10.557 9.084 0 6.575 5.226 8.66 10.564 10.228 6.133 1.924 8.12 2.843 8.12 6.367 0 3.12-2.73 5.138-6.954 5.138-4.422 0-7.444-1.927-9.235-5.887l-.42-.919-4.49 2.003.385.93c2.254 5.442 7.4 8.69 13.76 8.69 7.313 0 12.035-3.938 12.035-10.035 0-6.866-5.863-9.207-11.353-10.862z" fill="white"/><path d="M276.468 13.09c-9.738 0-17.666 7.974-17.666 17.78 0 9.845 7.926 17.854 17.666 17.854 6.45 0 12.167-3.41 15.283-9.119l.835-1.523h-5.63l-.3.464c-2.237 3.457-5.855 5.362-10.187 5.362-6.37 0-11.198-4.239-12.275-10.39h29.616l.084-.933c.053-.587.08-1.162.08-1.714-.002-9.97-7.688-17.78-17.506-17.78zm-12.294 15.29c1.03-6.194 5.88-10.47 12.294-10.47 6.446 0 11.165 4.196 12.15 10.47h-24.444z" fill="white"/><path d="M204.204 18.026c-2.112 5.122-8.673 20.559-8.673 20.559-.15.34-.3.72-.436 1.108a18.4 18.4 0 0 0-.447-1.102c0 .001-6.666-15.25-9.135-20.68-1.987-4.368-4.575-4.11-7.2-4.11 5.31 11.876 15.61 34.924 15.61 34.924l1.132 2.538 1.13-2.538s9.954-22.687 15.274-34.923c-2.747 0-5.466-.11-7.254 4.226z" fill="white"/><path d="M46.34 32.77c-1.032 0-1.994.247-2.802.487-1.173.35-2.127.52-2.922.52-1.441 0-2.485-.543-3.285-1.702l-.018-.032-.016-.028a3.125 3.125 0 0 1-.39-1.486c0-.538.143-1.092.41-1.556.811-1.15 1.838-1.661 3.28-1.661.88 0 1.96.184 3.486.598.759.208 1.52.312 2.256.312 4.723 0 8.558-3.88 8.558-8.648 0-4.77-3.835-8.65-8.558-8.65-3.885 0-7.284 2.655-8.265 6.459-.856 3.232-1.837 5.136-4.336 5.327-.594-.011-1.102-.147-1.532-.401a3.19 3.19 0 0 1-1.082-1.07l-.018-.036-.016-.037c-1.01-2.226.138-4.025 2.46-6.384a8.644 8.644 0 0 0 2.523-6.133c.005-4.772-3.83-8.65-8.551-8.65-4.72 0-8.556 3.878-8.556 8.648 0 2.298.882 4.463 2.48 6.094l1.22 1.314c1.27 1.502 2.282 3.17 1.181 5.328l-.027.053-.037.047c-.28.365-.571.635-.896.825-.406.233-.891.372-1.412.394l-.035.004-.04-.006c-2.157-.168-3.335-1.514-4.072-4.642-.99-4.202-4.451-7.138-8.422-7.138-4.715.001-8.552 3.882-8.552 8.652 0 4.769 3.837 8.648 8.55 8.648.798 0 1.642-.136 2.664-.429 1.205-.35 2.142-.513 2.943-.513 1.455 0 2.509.548 3.309 1.724l.02.034.019.033c.233.457.364.975.364 1.456a3.07 3.07 0 0 1-.399 1.5c-.82 1.214-1.886 1.78-3.285 1.78-.73 0-1.577-.154-2.592-.463-.946-.29-1.963-.576-3.044-.576-4.713.004-8.55 3.885-8.55 8.659 0 4.77 3.837 8.65 8.55 8.65 4.023 0 7.425-3.011 8.477-7.492.618-2.633 1.881-3.962 3.976-4.178l.047-.004h.045c.363.017.905.1 1.43.407a3.16 3.16 0 0 1 1.125 1.147l.02.038.016.04c.822 2.052-.324 3.74-1.684 5.255l-.899.955a8.647 8.647 0 0 0-2.492 6.102c0 4.772 3.837 8.652 8.556 8.652 4.721-.001 8.555-3.882 8.555-8.653a8.65 8.65 0 0 0-2.447-6.053l-.06-.043-.034-.056c-2.235-2.263-3.376-4.001-2.55-6.124l.017-.04.023-.034a3.07 3.07 0 0 1 1.147-1.185 3.12 3.12 0 0 1 1.519-.414h.04l.038.005c2.503.289 3.538 2.352 4.397 5.591 1.104 3.63 4.392 6.088 8.174 6.088 4.722 0 8.557-3.88 8.557-8.65.002-4.776-3.833-8.657-8.557-8.657zm-.013-16.21c1.73 0 3.136 1.424 3.136 3.174 0 1.754-1.406 3.174-3.136 3.174-1.735 0-3.144-1.42-3.144-3.174 0-1.75 1.41-3.173 3.144-3.173zM8.933 22.91c-1.74 0-3.147-1.42-3.147-3.175 0-1.75 1.408-3.173 3.147-3.173 1.728 0 3.134 1.423 3.134 3.173 0 1.754-1.406 3.174-3.134 3.174zm0 21.702c-1.74 0-3.147-1.423-3.147-3.176 0-1.75 1.408-3.171 3.147-3.171 1.728 0 3.134 1.421 3.134 3.171 0 1.753-1.406 3.176-3.134 3.176zM27.54 55.504c-1.738 0-3.145-1.422-3.145-3.175 0-1.75 1.407-3.172 3.146-3.172 1.727 0 3.136 1.423 3.136 3.171 0 1.752-1.409 3.174-3.135 3.174zm.001-43.793c-1.738.001-3.145-1.42-3.145-3.173 0-1.751 1.407-3.173 3.146-3.173 1.727 0 3.136 1.42 3.136 3.173 0 1.754-1.409 3.174-3.135 3.174zm18.787 32.902c-1.735 0-3.144-1.423-3.144-3.176 0-1.75 1.41-3.171 3.144-3.171 1.73 0 3.136 1.421 3.136 3.171 0 1.753-1.406 3.176-3.136 3.176z" fill="white"/></g><defs><clipPath id="clip0_511_1174"><rect width="293.619" height="61" fill="white" transform="translate(0.353516)"/></clipPath></defs></svg>
